X: 1
T: Sleep Soond in da Moarnin'
O: trad Shetland
N: Williamson  p.55, BSFC IV-27
D: Tom  Anderson  on "The Fiddler's Companion" tape, Ed Pearlman on BH 5B
Z: John Chambers <jc:trillian.mit.edu>
M: C|
L: 1/8
K: ADor
|:"Am"Aa2g a2ef |  "G"gedB GABG | "Am"Aa2g a2ef | "G"gedB [1 "Am"A2"G"BG :|[2 "Am"A2 AB ||
| "Am"c{B}AeA c{B}AeA |  "G"BcdB G2AB | "Am"c{B}AeA c{B}AeA |  "G"BAGB "Am"A2AB ||
| "Am"c{B}AeA c{B}AeA |  "G"BcdB G2AB | "Am(F)"ABcd efga | "G"gedB "Am"A4 |]
